X:280
T:Foynes Jig, The
T:Dawn's Jig, The
T:Paddy Taylor's
R:jig
C:Martin Mulvihill
Z:id:hn-jig-280
M:6/8
K:D
~F3 ~E3|DFA d2A|ded cAG|~F3 GFE|
~F3 ~E3|DFA d2f|edc ABc|1 dfe dAG:|2 dfe d2e||
|:~f3 g2e|fdB AB=c|~B3 EFG|A2D FED|
~f3 g2e|fdB AFA|Bcd ecA|1 dfe d2e:|2 dfe dAG||

